icons/1_Primary/DreamFactory.svg

<svg xmlns="http://www.w3.org/2000/svg" width="1024" height="1024" fill="none">
   <g clip-path="url(#a)">
      <path fill="#728DBE" d="M512 1024c282.77 0 512-229.23 512-512S794.77 0 512 0 0 229.23 0 512s229.23 512 512 512Z"/>
      <path fill="#fff" d="M528.86 533.8a175.852 175.852 0 0 1-80.76-19.69 138.918 138.918 0 0 1 73.43-26A25.65 25.65 0 0 1 517 470.6a62.996 62.996 0 0 1 11.91-33.13 61.83 61.83 0 0 1 11.91 33.13 24.268 24.268 0 0 1-4.58 17.56 139.06 139.06 0 0 1 73.58 26 176.475 176.475 0 0 1-80.96 19.64ZM707 479.3a69.071 69.071 0 0 0 1.07-11.3A64.002 64.002 0 0 0 644 404.2a72.172 72.172 0 0 0-14.2 1.53 154.002 154.002 0 0 0-296.62 57.4v2.75C377.12 477.78 417 521 440 537.16a156.483 156.483 0 0 0 179.53 0c34.2-23.2 58-29.92 80-29a60.148 60.148 0 0 1 57.4 58.93 56.935 56.935 0 0 1-34.44 53.073 56.95 56.95 0 0 1-21.73 4.627 74.003 74.003 0 0 1-50.84-18.93 1.377 1.377 0 0 1-.307-1.862 1.379 1.379 0 0 1 1.837-.428 70.06 70.06 0 0 0 30.718 11.604 70.062 70.062 0 0 0 32.632-3.664 41.686 41.686 0 0 0 23.66-36.79 36.928 36.928 0 0 0-9.009-26.8 36.944 36.944 0 0 0-25.321-12.58 38.338 38.338 0 0 0-16.336 1.539 38.333 38.333 0 0 0-14.194 8.231 140.604 140.604 0 0 0-32.21 45.8c-13.59 27.78-36.33 58.32-64 69.92h122.14a91.601 91.601 0 0 0 7-181.51l.47-.02ZM433 625.25c-15.27-18.78-27.78-35.72-61.06-85.95-33.28-50.23-82.28-53.13-99.84-37.86A101.668 101.668 0 0 0 342 676.08h143.8c-20.8-8.85-37.7-31.9-52.8-50.68M289.8 379.16a25.19 25.19 0 0 0 24.58-25.78 25.192 25.192 0 0 0-24.56-25.8 25.19 25.19 0 0 0-24.58 25.78 25.192 25.192 0 0 0 24.56 25.8Zm-28.7 48.09a20.004 20.004 0 0 0 18.192-12.764 19.984 19.984 0 0 0 1.348-7.686 19.99 19.99 0 0 0-5.294-14.388A20.01 20.01 0 0 0 261.42 386h-.32a20 20 0 0 0-19.55 20.44v.32a20.007 20.007 0 0 0 5.528 14.275 20 20 0 0 0 14.002 6.185m11 19.85a15.268 15.268 0 0 0 9.427 14.108 15.276 15.276 0 0 0 8.822.869 15.278 15.278 0 0 0 11.998-11.998A15.274 15.274 0 0 0 287.35 431.8a15.27 15.27 0 0 0-15.27 15.27Z"/>
   </g>
   <defs>
      <clipPath id="a">
         <path fill="#fff" d="M0 0h1024v1024H0z"/>
      </clipPath>
   </defs>
</svg>

<svg width="1024" height="1024" viewBox="0 0 1024 1024" fill="none" xmlns="http://www.w3.org/2000/svg">
<g clip-path="url(#clip0_2_2055)">
<path d="M512 1024C794.77 1024 1024 794.77 1024 512C1024 229.23 794.77 0 512 0C229.23 0 0 229.23 0 512C0 794.77 229.23 1024 512 1024Z" fill="#728DBE"/>
<path d="M528.86 533.8C500.753 533.785 473.06 527.033 448.1 514.11C469.596 498.618 495.075 489.596 521.53 488.11C517.944 483.017 516.334 476.793 517 470.6C517.741 458.649 521.872 447.157 528.91 437.47C536.007 447.126 540.144 458.636 540.82 470.6C541.622 476.825 539.98 483.119 536.24 488.16C562.746 489.626 588.278 498.648 609.82 514.16C584.788 527.074 557.027 533.808 528.86 533.8ZM707 479.3C707.666 475.569 708.024 471.79 708.07 468C708.017 451.049 701.241 434.811 689.23 422.85C677.218 410.889 660.951 404.181 644 404.2C639.228 404.239 634.471 404.752 629.8 405.73C616.353 372.717 591.869 345.391 560.525 328.414C529.181 311.436 492.918 305.858 457.92 312.63C422.923 319.403 391.358 338.107 368.611 365.552C345.863 392.997 333.341 427.484 333.18 463.13V465.88C377.12 477.78 417 521 440 537.16C466.308 555.584 497.647 565.467 529.765 565.467C561.883 565.467 593.223 555.584 619.53 537.16C653.73 513.96 677.53 507.24 699.53 508.16C714.793 508.856 729.219 515.333 739.879 526.278C750.54 537.223 756.636 551.814 756.93 567.09C757.031 574.567 755.657 581.99 752.889 588.936C750.12 595.882 746.011 602.215 740.795 607.573C735.579 612.931 729.359 617.209 722.49 620.163C715.621 623.117 708.237 624.689 700.76 624.79C682.028 625.143 663.859 618.378 649.92 605.86C649.642 605.647 649.456 605.336 649.399 604.99C649.341 604.644 649.418 604.29 649.613 603.998C649.807 603.707 650.105 603.501 650.447 603.421C650.788 603.342 651.147 603.395 651.45 603.57C660.626 609.817 671.154 613.794 682.168 615.174C693.182 616.555 704.367 615.299 714.8 611.51C721.765 608.172 727.666 602.964 731.844 596.468C736.022 589.972 738.312 582.442 738.46 574.72C738.792 569.88 738.167 565.022 736.621 560.424C735.076 555.825 732.639 551.576 729.451 547.92C726.263 544.263 722.387 541.27 718.042 539.111C713.697 536.953 708.97 535.671 704.13 535.34C698.638 534.668 693.065 535.193 687.794 536.879C682.524 538.566 677.682 541.374 673.6 545.11C659.901 558.063 648.948 573.638 641.39 590.91C627.8 618.69 605.06 649.23 577.39 660.83H699.53C721.667 658.791 742.308 648.771 757.603 632.638C772.898 616.505 781.805 595.36 782.661 573.146C783.518 550.931 776.267 529.164 762.259 511.901C748.252 494.637 728.445 483.058 706.53 479.32L707 479.3ZM433 625.25C417.73 606.47 405.22 589.53 371.94 539.3C338.66 489.07 289.66 486.17 272.1 501.44C257.627 515.48 247.656 533.506 243.455 553.227C239.253 572.949 241.01 593.474 248.503 612.194C255.995 630.914 268.885 646.983 285.534 658.359C302.182 669.734 321.837 675.903 342 676.08H485.8C465 667.23 448.1 644.18 433 625.4M289.8 379.16C296.478 379 302.819 376.194 307.428 371.36C312.038 366.525 314.538 360.058 314.38 353.38C314.544 346.702 312.048 340.232 307.443 335.394C302.837 330.556 296.498 327.745 289.82 327.58C283.142 327.74 276.801 330.546 272.192 335.38C267.582 340.215 265.082 346.682 265.24 353.36C265.076 360.038 267.572 366.507 272.177 371.346C276.783 376.184 283.122 378.995 289.8 379.16ZM261.1 427.25C263.726 427.19 266.314 426.614 268.717 425.554C271.12 424.494 273.291 422.971 275.105 421.072C276.92 419.173 278.343 416.935 279.292 414.486C280.242 412.038 280.7 409.426 280.64 406.8C280.747 404.171 280.335 401.548 279.426 399.079C278.518 396.61 277.131 394.344 275.346 392.412C273.56 390.48 271.411 388.919 269.022 387.819C266.632 386.718 264.049 386.1 261.42 386H261.1C255.797 386.118 250.758 388.338 247.092 392.171C243.425 396.004 241.432 401.137 241.55 406.44V406.76C241.489 409.386 241.946 411.998 242.894 414.447C243.842 416.896 245.264 419.135 247.078 421.035C248.891 422.935 251.061 424.459 253.464 425.52C255.866 426.581 258.454 427.159 261.08 427.22M272.08 447.07C272.08 450.09 272.976 453.042 274.654 455.553C276.331 458.065 278.716 460.022 281.507 461.178C284.297 462.333 287.367 462.636 290.329 462.047C293.291 461.457 296.012 460.003 298.148 457.867C300.283 455.732 301.737 453.011 302.327 450.049C302.916 447.087 302.613 444.017 301.458 441.226C300.302 438.436 298.345 436.051 295.834 434.373C293.322 432.696 290.37 431.8 287.35 431.8C283.3 431.8 279.416 433.409 276.553 436.272C273.689 439.136 272.08 443.02 272.08 447.07Z" fill="white"/>
</g>
<defs>
<clipPath id="clip0_2_2055">
<rect width="1024" height="1024" fill="white"/>
</clipPath>
</defs>
</svg>
